X:1
T:The Long Peggin' Awl
M:3/4
L:1/4
K:F
 z2 d| c=B/2-A/2 G| F G A| BA/2-G/2 F| G2G/2-A/2| B c d/2e/2| f e f|\
 ge/2-d/2 c| d2 c| d g g| f e d| c=B/2-A/2 G| c2 e| d =B G| G G A|\
 BA/2-G/2 F| G z2|
